X:1
T:Barbara Ellen
M:5/4
L:1/4
K:E
E/2-F/2| G G G- F E| G B E2 B| c3/2 d/2 e2 c| c B2 B
M:5/4
| c d e- d c| B G F2 G/2F/2| E G B2 E| F E3||
